public/svg/check-black.svg

<svg width="16" height="16" viewBox="0 0 16 16" fill="none" xmlns="http://www.w3.org/2000/svg">
<path d="M6.6 11.508L12.996 5.112L12.289 4.404L6.6 10.092L3.75 7.242L3.042 7.95L6.6 11.508ZM1.616 16C1.15533 16 0.771 15.846 0.463 15.538C0.155 15.23 0.000666667 14.8453 0 14.384V1.616C0 1.15533 0.154333 0.771 0.463 0.463C0.771666 0.155 1.156 0.000666667 1.616 0H14.385C14.845 0 15.2293 0.154333 15.538 0.463C15.8467 0.771666 16.0007 1.156 16 1.616V14.385C16 14.845 15.846 15.2293 15.538 15.538C15.23 15.8467 14.8453 16.0007 14.384 16H1.616ZM1.616 15H14.385C14.5383 15 14.6793 14.936 14.808 14.808C14.9367 14.68 15.0007 14.5387 15 14.384V1.616C15 1.462 14.936 1.32067 14.808 1.192C14.68 1.06333 14.5387 0.999333 14.384 1H1.616C1.462 1 1.32067 1.064 1.192 1.192C1.06333 1.32 0.999333 1.46133 1 1.616V14.385C1 14.5383 1.064 14.6793 1.192 14.808C1.32 14.9367 1.461 15.0007 1.615 15" fill="black"/>
</svg>

<svg xmlns="http://www.w3.org/2000/svg" width="16" height="16" fill="none"><path fill="#000" d="m6.6 11.508 6.396-6.396-.707-.708L6.6 10.092l-2.85-2.85-.708.708zM1.616 16q-.69 0-1.153-.462-.462-.462-.463-1.154V1.616Q0 .926.463.463A1.57 1.57 0 0 1 1.616 0h12.769q.69 0 1.153.463T16 1.616v12.769q0 .69-.462 1.153T14.384 16zm0-1h12.769a.6.6 0 0 0 .423-.192.58.58 0 0 0 .192-.424V1.616a.6.6 0 0 0-.192-.424.58.58 0 0 0-.424-.192H1.616a.6.6 0 0 0-.424.192.58.58 0 0 0-.192.424v12.769a.6.6 0 0 0 .192.423.58.58 0 0 0 .423.192"/></svg>
